!!!COM: Schubert, Franz
!!!CNT: Deutscher
!!!TXO: Deutsch
!!!OTL: "Wasserfluth"
!!!OPR: Winterreise
!!!LYR: Mu2ller, Wilhelm
!!!OPS: Opus 89
!!!ONM: No. 6
!!!ODT: 1827/
!!NB: Vocal melody only encoded.
**kern	**silbe
*clefG2	*
*k[f#c#g#]	*
*f#:	*
*M3/4	*
*MM[langsam]	*
=5	=5
{12f#	{Man-
12a	|
12c#	-che
4.ff#	Thra2n'
8cc#	aus
=6	=6
12a	mei-
12g#	|
12f#	-nen
4cc#	Au-
8c#}	-gen}
8r	.
=7	=7
{8.g#	{ist
16cc#	ge-
8.g#	-fal-
16cc#	-len
12g#	in
12cc#	|
12b	den
=8	=8
2a}	Schnee;}
4r	.
=9	=9
{12f#	{sei-
12a	|
12cc#	-ne
4.ff#	kal-
8cc#	-ten
=10	=10
12a	Flo-
12g#	|
12f#	-cken
4cc#	sau-
8c#}	-gen}
8r	.
=11	=11
{12c#	{dur-
12f#	|
12g#	-stig
8.a	ein
16b	das
12cc#	hei-
12dd#	|
12ee#	-sse
=12	=12
(4.ff#	Weh,
8ggn	|
8een)}	|}
8r	.
=13	=13
{12dd	{dur-
12cc#	|
12b	-stig
12cc#	ein
12b	|
12a	das
12b	hei-
12a	|
12g#	-sse
=14	=14
2f#}	Weh.}
4r	.
=19	=19
{12dd	{Wenn
12cc#	|
12b	die
([4b	Gra2-
12b]	|
12a)	|
12g#	-ser
=20	=20
12dd	spros-
12cc#	|
12b	-sen
[4b	wol-
12b]	|
12a	|
12g#	-len,
=21	=21
12cc#	weht
12a	|
12e	da-
12c#	-her
12e	|
12a	ein
12cc#	lau-
12dd	|
12ee	-er
=22	=22
2b}	Wind,}
4r	.
=23	=23
{12dd	{und
12cc#	|
12b	das
[4b	Eis
12b]	|
12a	|
12g#	zer-
=24	=24
12dd	-springt
12cc#	|
12b	in
[4b	Schol-
12b]	|
12a	|
12g#	-len,
=25	=25
12a	und
12e	|
12c#	der
12ee	wei-
12cc#	|
12a	-che
12b	Schnee
12dd	|
12g#	zer-
=26	=26
2a}	-rinnt,}
4r	.
=27	=27
{12f#	{und
12a	|
12cc#	der
12ff#	wei-
12aa	|
12ff#	-che
12ee#	Schnee
12gg#	|
12ee#	zer-
=28	=28
2.ff#}	-rinnt.}
*-	*-
